!!!COM:	Bach, Johann Sebastian
!!!CDT:	1685/02/21/-1750/07/28/
!!!OTL@@DE:	Von Gott will ich nicht lassen
!!!SCT:	BWV 417
!!!PC#:	364
!!!AGN:	chorale
**kern	**kern	**kern	**kern
*ICvox	*ICvox	*ICvox	*ICvox
*Ibass	*Itenor	*Ialto	*Isoprn
*I"Bass	*I"Tenor	*I"Alto	*I"Soprano
*clefF4	*clefGv2	*clefG2	*clefG2
*>[A,A,B]	*>[A,A,B]	*>[A,A,B]	*>[A,A,B]
*>norep[A,B]	*>norep[A,B]	*>norep[A,B]	*>norep[A,B]
*>A	*>A	*>A	*>A
*k[f#c#]	*k[f#c#]	*k[f#c#]	*k[f#c#]
*b:	*b:	*b:	*b:
*M4/4	*M4/4	*M4/4	*M4/4
*met(c)	*met(c)	*met(c)	*met(c)
*MM100	*MM100	*MM100	*MM100
8F#L	4A#	4c#	4f#
8EJ	.	.	.
=1	=1	=1	=1
4D	4.B	4f#	4b
4C#	.	4e	4cc#
.	8A#	.	.
8BBL	4.B	8dL	4dd
8AAJ	.	8f#J	.
8GG#L	.	8bL	4ee
8EJ	8B	8g#J	.
=2	=2	=2	=2
8AAL	8BL	8g#L	4.cc#
8BBJ	8AJ	8f#J	.
4C#	8G#L	16e#LL	.
.	.	16d#J	.
.	8c#J	8e#J	8b
4FF#;	4c#;	4f#;	4a;
8F#L	4c#	4f#	4a
8EnXJ	.	.	.
=3	=3	=3	=3
8DnXL	8BL	4f#	4b
8F#J	8AJ	.	.
4G	2G	8enXL	4b
.	.	8dJ	.
4AA#	.	4e	8cc#L
.	.	.	8bJ
4AA#	4F#	8eL	4cc#
.	.	16f#L	.
.	.	16eJJ	.
=4	=4	=4	=4
2.BB;	2.F#;	2.d;	2.f#;
=:|!	=:|!	=:|!	=:|!
*>B	*>B	*>B	*>B
8BL	4d	4b	4ff#
8AJ	.	.	.
=5	=5	=5	=5
4G	8eL	4b	4ee
.	8f#J	.	.
8F#L	4g	4b	4dd
8EJ	.	.	.
4A	8f#L	4a	8ddL
.	16eL	.	8eeJ
.	16dJJ	.	.
4AA	8eL	4a	4cc#
.	16f#L	.	.
.	16gJJ	.	.
=6	=6	=6	=6
2.D;	2.f#;	2.a;	2.dd;
8AL	4e	4a	4cc#
8GJ	.	.	.
=7	=7	=7	=7
8F#L	4f#	4a	4dd
8EJ	.	.	.
8DL	4e	4a	4ee
8C#J	.	.	.
8DL	8dL	4.a	4ff#
16EL	8AJ	.	.
16F#JJ	.	.	.
4BB	4d	.	4ff#
.	.	8g#	.
=8	=8	=8	=8
8C#L	4c#	8aL	4.ee
8DJ	.	8f#J	.
4E	16BLL	4g#	.
.	16AJ	.	.
.	8BJ	.	8dd
4AA;	4A;	4e;	4cc#;
4AA#	4c#	4f#	8cc#L
.	.	.	16ddL
.	.	.	16eeJJ
=9	=9	=9	=9
8BB	8c#L	4f#	4dd
4B	8BJ	.	.
.	8c#L	4f#	8.cc#L
8AnX	8d#J	.	.
.	.	.	16bJk
8GL	8eL	8gnXL	4b
16AL	8d#J	8f#J	.
16BJJ	.	.	.
4E	8eL	4g	8bL
.	8BJ	.	16cc#L
.	.	.	16ddJJ
=10	=10	=10	=10
8E#L	8G#L	8g#L	4.cc#
16F#L	16AL	8f#J	.
16G#JJ	16BJJ	.	.
4C#	4c#	4e#	.
.	.	.	8b
4F#;	4c#;	4f#;	4a;
8BBL	8dL	8f#L	4g
8C#J	8AJ	8eJ	.
=11	=11	=11	=11
8DL	4A	8dL	4f#
8C#J	.	8eJ	.
8DL	8dL	8f#L	4b
8EnXJ	8c#J	8gJ	.
8F#L	8dL	8f#L	8bL
8EJ	16eL	16gL	8cc#J
.	16dJJ	16f#JJ	.
4F#	8c#L	8eL	4a#
.	8F#J	16f#L	.
.	.	16eJJ	.
=12	=12	=12	=12
2.BB;	2.F#;	2.d#;	2.b;
==	==	==	==
*-	*-	*-	*-
!!!hum2abc: -Q ''
!!!title: @{PC#}. @{OTL@@DE}
!!!YOR1: 371 vierstimmige Choralges&auml;nge von Johann Sebastian Bach, 
!!!YOR2: 4th ed. by Alfred D&ouml;rffel (Leipzig: Breitkopf und H&auml;rtel, 
!!!YOR2: c.1875). 178 pp. Plate "V.A.10".  reprint: J.S. Bach, 371 Four-Part 
!!!YOR4: Chorales (New York: Associated Music Publishers, Inc., c.1940).
!!!SMS: B&H, 4th ed, Alfred D&ouml;rffel, c.1875, plate V.A.10
!!!EED:  Craig Stuart Sapp
!!!EEV:  2009/05/22
